icons/midnadark/actions/24/distribute-horizontal-page.svg

<?xml version="1.0" encoding="UTF-8" standalone="no"?>
<!-- Created with Inkscape (http://www.inkscape.org/) -->

<svg
   xmlns:osb="http://www.openswatchbook.org/uri/2009/osb"
   xmlns:dc="http://purl.org/dc/elements/1.1/"
   xmlns:cc="http://creativecommons.org/ns#"
   xmlns:rdf="http://www.w3.org/1999/02/22-rdf-syntax-ns#"
   xmlns:svg="http://www.w3.org/2000/svg"
   xmlns="http://www.w3.org/2000/svg"
   xmlns:sodipodi="http://sodipodi.sourceforge.net/DTD/sodipodi-0.dtd"
   xmlns:inkscape="http://www.inkscape.org/namespaces/inkscape"
   width="22"
   height="22"
   id="svg3869"
   version="1.1"
   inkscape:version="0.91 r13725"
   sodipodi:docname="distribute-horizontal-page.svg">
  <defs
     id="defs3871">
    <inkscape:perspective
       sodipodi:type="inkscape:persp3d"
       inkscape:vp_x="0 : 12 : 1"
       inkscape:vp_y="0 : 1000 : 0"
       inkscape:vp_z="24 : 12 : 1"
       inkscape:persp3d-origin="12 : 8 : 1"
       id="perspective4146" />
    <inkscape:perspective
       sodipodi:type="inkscape:persp3d"
       inkscape:vp_x="0 : 12 : 1"
       inkscape:vp_y="0 : 1000 : 0"
       inkscape:vp_z="24 : 12 : 1"
       inkscape:persp3d-origin="12 : 8 : 1"
       id="perspective4090" />
    <clipPath
       clipPathUnits="userSpaceOnUse"
       id="clipPath16">
      <path
         d="m 0,706.465 1490.926,0 L 1490.926,0 0,0 0,706.465 Z"
         id="path18"
         inkscape:connector-curvature="0" />
    </clipPath>
    <clipPath
       clipPathUnits="userSpaceOnUse"
       id="clipPath24">
      <path
         d="m 22.1953,686.117 1447.7347,0 0,-667.1902 -1447.7347,0 0,667.1902 z"
         id="path26"
         inkscape:connector-curvature="0" />
    </clipPath>
    <clipPath
       clipPathUnits="userSpaceOnUse"
       id="clipPath4534">
      <rect
         ry="15.999986"
         y="8.0000038"
         x="8.0000114"
         height="31.999971"
         width="31.999989"
         id="rect4536"
         style="fill:url(#linearGradient4538);fill-opacity:1;stroke:none" />
    </clipPath>
    <clipPath
       clipPathUnits="userSpaceOnUse"
       id="clipPath4584">
      <rect
         ry="15.999986"
         y="507.798"
         x="392.57144"
         height="31.999971"
         width="31.999989"
         id="rect4586"
         style="fill:url(#linearGradient4588);fill-opacity:1;stroke:none" />
    </clipPath>
    <clipPath
       clipPathUnits="userSpaceOnUse"
       id="clipPath4550">
      <rect
         ry="15.999986"
         y="507.798"
         x="392.57144"
         height="31.999971"
         width="31.999989"
         id="rect4552"
         style="fill:url(#linearGradient4554);fill-opacity:1;stroke:none" />
    </clipPath>
    <clipPath
       clipPathUnits="userSpaceOnUse"
       id="clipPath4568">
      <rect
         ry="15.999986"
         y="507.798"
         x="392.57144"
         height="31.999971"
         width="31.999989"
         id="rect4570"
         style="fill:url(#linearGradient4572);fill-opacity:1;stroke:none" />
    </clipPath>
    <clipPath
       clipPathUnits="userSpaceOnUse"
       id="clipPath4528">
      <rect
         ry="15.999986"
         y="8.0000038"
         x="8.0000114"
         height="31.999971"
         width="31.999989"
         id="rect4530"
         style="fill:url(#linearGradient4532);fill-opacity:1;stroke:none" />
    </clipPath>
    <clipPath
       clipPathUnits="userSpaceOnUse"
       id="clipPath4578">
      <rect
         ry="15.999986"
         y="507.798"
         x="392.57144"
         height="31.999971"
         width="31.999989"
         id="rect4580"
         style="fill:url(#linearGradient4582);fill-opacity:1;stroke:none" />
    </clipPath>
    <clipPath
       clipPathUnits="userSpaceOnUse"
       id="clipPath4562">
      <rect
         ry="15.999986"
         y="507.798"
         x="392.57144"
         height="31.999971"
         width="31.999989"
         id="rect4564"
         style="fill:url(#linearGradient4566);fill-opacity:1;stroke:none" />
    </clipPath>
    <clipPath
       clipPathUnits="userSpaceOnUse"
       id="clipPath4544">
      <rect
         ry="15.999986"
         y="507.798"
         x="392.57144"
         height="31.999971"
         width="31.999989"
         id="rect4546"
         style="fill:url(#linearGradient4548);fill-opacity:1;stroke:none" />
    </clipPath>
    <clipPath
       clipPathUnits="userSpaceOnUse"
       id="clipPath4390">
      <rect
         ry="15.999986"
         y="8.0000038"
         x="8.0000114"
         height="31.999971"
         width="31.999989"
         id="rect4392"
         style="fill:url(#linearGradient4532);fill-opacity:1;stroke:none" />
    </clipPath>
    <clipPath
       clipPathUnits="userSpaceOnUse"
       id="clipPath4407">
      <rect
         ry="15.999986"
         y="507.798"
         x="392.57144"
         height="31.999971"
         width="31.999989"
         id="rect4409"
         style="fill:url(#linearGradient4582);fill-opacity:1;stroke:none" />
    </clipPath>
    <clipPath
       clipPathUnits="userSpaceOnUse"
       id="clipPath4424">
      <rect
         ry="15.999986"
         y="507.798"
         x="392.57144"
         height="31.999971"
         width="31.999989"
         id="rect4426"
         style="fill:url(#linearGradient4566);fill-opacity:1;stroke:none" />
    </clipPath>
    <clipPath
       clipPathUnits="userSpaceOnUse"
       id="clipPath4441">
      <rect
         ry="15.999986"
         y="507.798"
         x="392.57144"
         height="31.999971"
         width="31.999989"
         id="rect4443"
         style="fill:url(#linearGradient4548);fill-opacity:1;stroke:none" />
    </clipPath>
    <clipPath
       id="clipPath4528-1"
       clipPathUnits="userSpaceOnUse">
      <rect
         style="fill:url(#linearGradient4532);fill-opacity:1;stroke:none"
         id="rect4530-7"
         width="31.999989"
         height="31.999971"
         x="8.0000114"
         y="8.0000038"
         ry="15.999986" />
    </clipPath>
    <clipPath
       id="clipPath4578-8"
       clipPathUnits="userSpaceOnUse">
      <rect
         style="fill:url(#linearGradient4582);fill-opacity:1;stroke:none"
         id="rect4580-7"
         width="31.999989"
         height="31.999971"
         x="392.57144"
         y="507.798"
         ry="15.999986" />
    </clipPath>
    <clipPath
       id="clipPath4562-8"
       clipPathUnits="userSpaceOnUse">
      <rect
         style="fill:url(#linearGradient4566);fill-opacity:1;stroke:none"
         id="rect4564-8"
         width="31.999989"
         height="31.999971"
         x="392.57144"
         y="507.798"
         ry="15.999986" />
    </clipPath>
    <clipPath
       id="clipPath4544-1"
       clipPathUnits="userSpaceOnUse">
      <rect
         style="fill:url(#linearGradient4548);fill-opacity:1;stroke:none"
         id="rect4546-1"
         width="31.999989"
         height="31.999971"
         x="392.57144"
         y="507.798"
         ry="15.999986" />
    </clipPath>
    <linearGradient
       id="linearGradient5606"
       osb:paint="solid">
      <stop
         id="stop5608"
         offset="0"
         style="stop-color:#000000;stop-opacity:1;" />
    </linearGradient>
  </defs>
  <sodipodi:namedview
     id="base"
     pagecolor="#ffffff"
     bordercolor="#666666"
     borderopacity="1.0"
     inkscape:pageopacity="0.0"
     inkscape:pageshadow="2"
     inkscape:zoom="22.627416"
     inkscape:cx="-0.6852433"
     inkscape:cy="10.801386"
     inkscape:document-units="px"
     inkscape:current-layer="layer1-7"
     showgrid="true"
     fit-margin-top="0"
     fit-margin-left="0"
     fit-margin-right="0"
     fit-margin-bottom="0"
     inkscape:window-width="1366"
     inkscape:window-height="687"
     inkscape:window-x="0"
     inkscape:window-y="0"
     inkscape:window-maximized="1"
     inkscape:showpageshadow="false"
     inkscape:object-nodes="true"
     inkscape:snap-bbox="true">
    <inkscape:grid
       type="xygrid"
       id="grid4132" />
    <sodipodi:guide
       position="4,18"
       orientation="18,0"
       id="guide4138" />
    <sodipodi:guide
       position="5,3"
       orientation="0,18"
       id="guide4140" />
    <sodipodi:guide
       position="20,2.0000174"
       orientation="-18,0"
       id="guide4142" />
    <sodipodi:guide
       position="2,21"
       orientation="0,-18"
       id="guide4144" />
    <sodipodi:guide
       position="3,19.000017"
       orientation="16,0"
       id="guide4146" />
    <sodipodi:guide
       position="2,4"
       orientation="0,16"
       id="guide4148" />
    <sodipodi:guide
       position="21,20"
       orientation="-16,0"
       id="guide4150" />
    <sodipodi:guide
       position="2,20"
       orientation="0,-16"
       id="guide4152" />
  </sodipodi:namedview>
  <metadata
     id="metadata3874">
    <rdf:RDF>
      <cc:Work
         rdf:about="">
        <dc:format>image/svg+xml</dc:format>
        <dc:type
           rdf:resource="http://purl.org/dc/dcmitype/StillImage" />
        <dc:title />
      </cc:Work>
    </rdf:RDF>
  </metadata>
  <g
     inkscape:label="Capa 1"
     inkscape:groupmode="layer"
     id="layer1"
     transform="translate(-326,-534.3622)">
    <g
       transform="translate(-52.85714,-5.71427)"
       id="layer1-7"
       inkscape:label="Capa 1">
      <path
         style="opacity:1;fill:#ffffff;fill-opacity:1;stroke:none"
         d="M 3.9765625 3 C 3.9765625 3 3 3.0104 3 4 L 3 18.017578 C 3 18.000578 3.007 19 4 19 L 18 19 C 18 19 19 19.004 19 18 L 19 4 C 19 4 18.9953 3 17.986328 3 L 3.9765625 3 z M 6 5 L 8 5 L 8 17 L 6 17 L 6 5 z M 12 7 L 17 7 L 17 15 L 12 15 L 12 7 z "
         transform="translate(378.85714,540.07647)"
         id="path4190" />
      <g
         transform="translate(366.7675,-489.93536)"
         id="layer1-4"
         inkscape:label="Capa 1">
        <g
           transform="translate(0.02684778,2e-5)"
           id="g4168">
          <g
             style="enable-background:new"
             id="g4163"
             transform="translate(2.4999983,1034.3622)">
            <g
               transform="translate(-405.00081,19.00334)"
               style="display:inline"
               inkscape:label="actions"
               id="layer12" />
          </g>
        </g>
      </g>
    </g>
  </g>
</svg>

<svg xmlns="http://www.w3.org/2000/svg" viewBox="0 0 22 22"><defs><clipPath><rect y="8" x="8" height="32" width="32" fill="none" rx="16"/></clipPath><clipPath><rect y="507.8" x="392.57" height="32" width="32" fill="none" rx="16"/></clipPath><clipPath><rect width="32" height="32" x="392.57" y="507.8" fill="none" rx="16"/></clipPath><clipPath><rect y="507.8" x="392.57" height="32" width="32" fill="none" rx="16"/></clipPath><clipPath><rect y="507.8" x="392.57" height="32" width="32" fill="none" rx="16"/></clipPath><clipPath><rect width="32" height="32" x="392.57" y="507.8" fill="none" rx="16"/></clipPath><clipPath><rect width="32" height="32" x="8" y="8" fill="none" rx="16"/></clipPath><clipPath><rect width="32" height="32" x="392.57" y="507.8" fill="none" rx="16"/></clipPath><clipPath><rect y="507.8" x="392.57" height="32" width="32" fill="none" rx="16"/></clipPath><clipPath><rect y="507.8" x="392.57" height="32" width="32" fill="none" rx="16"/></clipPath><clipPath><rect y="8" x="8" height="32" width="32" fill="none" rx="16"/></clipPath><clipPath><path d="m0 706.47h1490.93v-706.47h-1490.93v706.47"/></clipPath><clipPath><path d="m22.2 686.12h1447.73v-667.19h-1447.73v667.19"/></clipPath><clipPath><rect y="507.8" x="392.57" height="32" width="32" fill="none" rx="16"/></clipPath><clipPath><rect y="507.8" x="392.57" height="32" width="32" fill="none" rx="16"/></clipPath><clipPath><rect y="507.8" x="392.57" height="32" width="32" fill="none" rx="16"/></clipPath><clipPath><rect y="507.8" x="392.57" height="32" width="32" fill="none" rx="16"/></clipPath><clipPath><rect y="8" x="8" height="32" width="32" fill="none" rx="16"/></clipPath></defs><path d="m3.977 3c0 0-.977.001-.977 1v14.02c0-.017.007.982 1 .982h14c0 0 1 .004 1-1v-14c0 0-.005-1-1.014-1h-14.01m2.023 2h2v12h-2v-12m6 2h5v8h-5v-8" transform="translate(0-.002)" fill="#fff"/></svg>
